img/Telegram icon.svg

<svg width="41" height="40" viewBox="0 0 41 40" fill="none" xmlns="http://www.w3.org/2000/svg">
<g id="Telegram icon">
<path id="Vector" d="M20.5788 5.44444e-05C15.2462 0.0247327 10.1406 2.14276 6.37865 5.89081C2.61674 9.63886 0.504825 14.7118 0.504883 20C0.504883 25.3043 2.62972 30.3914 6.41197 34.1421C10.1942 37.8929 15.324 40 20.6729 40C26.0218 40 31.1516 37.8929 34.9339 34.1421C38.7161 30.3914 40.841 25.3043 40.841 20C40.841 14.6957 38.7161 9.60863 34.9339 5.85791C31.1516 2.10719 26.0218 5.44444e-05 20.6729 5.44444e-05C20.6416 -1.81481e-05 20.6102 -1.81481e-05 20.5788 5.44444e-05ZM28.9183 12.04C29.0864 12.0367 29.4578 12.0784 29.6998 12.2734C29.8606 12.4119 29.9632 12.6052 29.9872 12.815C30.0141 12.97 30.0477 13.325 30.0208 13.6017C29.7183 16.765 28.404 24.4384 27.7351 27.98C27.4527 29.48 26.8964 29.9817 26.357 30.03C25.1872 30.1383 24.2981 29.2633 23.1637 28.5267C21.3889 27.3717 20.3855 26.6534 18.6628 25.5267C16.6712 24.2267 17.962 23.51 19.0965 22.3434C19.3939 22.0367 24.5536 17.3817 24.6544 16.96C24.6662 16.9067 24.678 16.71 24.5603 16.6067C24.4427 16.5034 24.2679 16.5384 24.1418 16.5667C23.9637 16.6067 21.1284 18.4667 15.636 22.1417C14.8292 22.6917 14.1015 22.9584 13.4477 22.9417C12.7284 22.9284 11.3435 22.54 10.3133 22.2084C9.04941 21.8 8.04605 21.585 8.13344 20.8934C8.17882 20.5334 8.67966 20.165 9.63428 19.7884C15.5133 17.2484 19.4326 15.5734 21.3956 14.765C26.9956 12.455 28.1603 12.0534 28.9183 12.04Z" fill="white"/>
</g>
</svg>

<svg xmlns="http://www.w3.org/2000/svg" width="41" height="40" fill="none"><path fill="#fff" d="M20.579 0a20.25 20.25 0 0 0-14.2 5.89A19.92 19.92 0 0 0 .505 20a19.92 19.92 0 0 0 5.907 14.142A20.25 20.25 0 0 0 20.672 40a20.25 20.25 0 0 0 14.262-5.858A19.92 19.92 0 0 0 40.84 20a19.92 19.92 0 0 0-5.907-14.142A20.25 20.25 0 0 0 20.579 0m8.34 12.04c.167-.003.539.038.78.233.162.139.264.332.288.542.027.155.06.51.034.787-.303 3.163-1.617 10.836-2.286 14.378-.282 1.5-.839 2.002-1.378 2.05-1.17.108-2.059-.767-3.193-1.503-1.775-1.155-2.779-1.874-4.501-3-1.992-1.3-.701-2.017.433-3.184.298-.306 5.458-4.961 5.558-5.383.012-.053.024-.25-.094-.353-.117-.104-.292-.069-.418-.04q-.267.061-8.506 5.575-1.209.825-2.188.8c-.72-.014-2.104-.402-3.135-.734-1.264-.408-2.267-.623-2.18-1.315q.07-.54 1.501-1.105 8.819-3.81 11.762-5.023c5.6-2.31 6.764-2.712 7.522-2.725"/></svg>
